X: 35269
T: Rose In The Garden, The
R: reel
M: 4/4
K: Amajor
AF|:EFAc- cdcB|c2AB- BcAF|EFAc- cdfd|efBA FAA2|
EFAc -cdcB|c2AB- BcAF|EFAc dfaf|ecBA FAA2:|
|:ce2c d2fd|ce2c BAFA|ce2c d2fd|ecBA FAA2|
ce2c df2d|ce2c BAFA|cefg abaf|ecBA FAA2:|

